!!! OTL: Luo\,Shui^,Tien- (Rainging Day)
!!! YEC: Copyright 2001, Chia-wei Lee
!! For Voice Only
!! [Andante Expressivo]
**kern	**silbe
*clefG2	*LXinhua
*B-:	*ping-ying
*M3/4	*
=7	=7
8dd	Luo\
8b	Shui^
(4cc	Tien-
4dd)	|
=8	=8
8dd	Luo\
8b	Shui^
[4cc	Tien-
4cc]	|
=9	=9
8dd	Luo\
8b	Shui^
8cc	Luo\
[8g	Dau\
4g]	|
=10	=10
8g	Ai^
8g	De
8cc	Shen-
[8cc	Bien-
4cc]	|
=11	=11
2r	.
=12	=12
8g	You\
8b	Wo/
8cc	San^
[8dd	Lai/
4dd]	|
=13	=13
8dd	You\
8cc	Wo/
8g	Li\
[8b	Ge/
4b]	|
=14	=14
8b	Guang-
8b	Zhe
8dd	To/
[8cc	Lai/
4cc]	|
=15	=15
8b	Zhen-
8g	Ke^
(8b	Lian/
[8g)	|
4g	|
=16	=16
4g]	|
4r	.
4r	.
*-	*-
